X: 22377
T: Lad O'Beirne's
R: reel
M: 4/4
K: Fmajor
d2cA dAcA|GcAF GFDF|CF~F2 CFAc|dcde fagf|
d2cA dAcA|GcAF GFDF|CFAc DFBd|1 cbag f3e:|2 cbag f3g||
a2gf afgf|defd cBAB|c3d cdfa|g3a g2fg|
afgf afgf|defd cBAB|c3d cdfa|g3a f3g|
afgf afgf|defd cBAB|c3d cdfa|g3a bagf|
afge f3e|defd cAFD|CFAc DFBd|cbag f3e||

